X: 1
T: Miss Bunty Clark's Fancy
C: Jimmy Shand Sr
R: Jig
%%Q: 180
Z: 2010 John Chambers <jc:trillian.mit.edu>
S: printed MS of unknown origin
M: 6/8
L: 1/8
K: G
|: D |\
"G"G2d BGD | "C"ECA "D7"FEF | "G"GBd dBd | "D7"cAF DEF |\
"G"G2d BGD | "C"ECA "D7"FED | "C"EGE "G"DGB | "D7"cAF "G"G2 :|
B/c/ |\
"G"d3 g2B | "G"dge d2B | "D7"cac "G"BgB | "A7"a2g "D7"fed |\
"G"d3 g2B | "G"dge d2B | "A7"Aag "D7"fef | "G"g3- "D7"gfe |
"G"d3 g2B | "G"dge d2B | "D7"cac "G"B2d | "G"GdB "D7"AFD |\
"C"EcE "G"DGB | "D7"cBA d2D | "C"EcE "G"DGB | "D7"cAF "G"G2 |]
